X:301
T:Sporting Paddy
T:Irish Pat
R:Reel
O:Ireland
B:Ceol Rince 1 n133
Z:Transcription, chords:Mike Long
M:C|
L:1/8
K:G
"Am"EAAB "G"GABG|"Am"EAAB "G"G2ED|"Am"EAAB "G"GABd|"Em"edge "G"dBAG|\
"Am"EAAB "G"GABG|
"Am"EAAB "G"G2ED|"Am"EAAB "G"GABd|"C"efge "D"d2ef|]\
"C"ge~e2 "G"gede|"C"ge~e2 "D"a2ba|
"C"ge~e2 "G"ged2|"C"efge "D"d2ef|\
"C"ge~e2 "G"gede|"C"ge~e2 "D"a2ga|"G"bgab "C"ged2|"C"efge "G"dBAG|]
